X:120
T:Retrowange novelle
C:Jacques de Cambrai
M:6/8
L:1/8
K:C
P:A
D | A2A G2G | E3 !breath!E2 F | D2D EF G |1 E3 !breath!E2 :|2 E3 E2z ||
P:B
E2F D2A | A2G FE D | [M:9/8] D2E F/E/D E C2z | 
M:6/8
E2F ED A | A2G FE D | [M:9/8] CB, A, C2D E/F/ED |]





